X: 3047
T: The BONNY TOUN O' KENMORE
Q:"Strathspey."
R: Strathspey.
%R:strathspey
B: James Kerr "Merry Melodies" v.3 p.8 #47
Z: 2016 John Chambers <jc:trillian.mit.edu>
M: C
L: 1/8
K: G
uB |\
vd<ud vd<uB vd>vdud>uB | e<e g>f e2 e>f |\
g>e d<B A>G A<B | G<E E>D G3 :|
|: d |\
g2 g>b B>A B<G | E<A A>B A<a f<a |\
g/f/e/d/ B<g d>BA>G | (3FGA D>d B<G G :|

%%sep 1 1 500
%%sep 1 1 500

